svg/fluentui-system-icons/ic_fluent_table_offset_less_than_or_equal_to_20_regular.svg

<svg width="20" height="20" viewBox="0 0 20 20" fill="none" xmlns="http://www.w3.org/2000/svg">
<path d="M5.5 3C4.11929 3 3 4.11929 3 5.5V14.5C3 15.8807 4.11929 17 5.5 17H9.59971C9.43777 16.6832 9.30564 16.3486 9.20703 16H5.5C4.67157 16 4 15.3284 4 14.5V13H9.20703C9.30564 12.6514 9.43777 12.3168 9.59971 12H8V8H16V9.20703C16.3486 9.30564 16.6832 9.43777 17 9.59971V5.5C17 4.11929 15.8807 3 14.5 3H5.5ZM7 12H4V8H7V12ZM4 7V5.5C4 4.67157 4.67157 4 5.5 4H12V7H4ZM16 5.5V7H13V4H14.5C15.3284 4 16 4.67157 16 5.5ZM14.5 19C16.9853 19 19 16.9853 19 14.5C19 12.0147 16.9853 10 14.5 10C12.0147 10 10 12.0147 10 14.5C10 16.9853 12.0147 19 14.5 19ZM13 16H16C16.2761 16 16.5 16.2239 16.5 16.5C16.5 16.7761 16.2761 17 16 17H13C12.7239 17 12.5 16.7761 12.5 16.5C12.5 16.2239 12.7239 16 13 16ZM15.4 11.2C15.5657 11.4209 15.5209 11.7343 15.3 11.9L13.8333 13L15.3 14.1C15.5209 14.2657 15.5657 14.5791 15.4 14.8C15.2343 15.0209 14.9209 15.0657 14.7 14.9L12.7 13.4C12.5741 13.3056 12.5 13.1574 12.5 13C12.5 12.8426 12.5741 12.6944 12.7 12.6L14.7 11.1C14.9209 10.9343 15.2343 10.9791 15.4 11.2Z" fill="#212121"/>
</svg>

<svg xmlns="http://www.w3.org/2000/svg" width="20" height="20"><path d="M5.5 3A2.5 2.5 0 0 0 3 5.5v9A2.5 2.5 0 0 0 5.5 17h4.1a5.465 5.465 0 0 1-.393-1H5.5A1.5 1.5 0 0 1 4 14.5V13h5.207c.099-.349.23-.683.393-1H8V8h8v1.207c.349.099.683.23 1 .393V5.5A2.5 2.5 0 0 0 14.5 3h-9ZM7 12H4V8h3v4ZM4 7V5.5A1.5 1.5 0 0 1 5.5 4H12v3H4Zm12-1.5V7h-3V4h1.5A1.5 1.5 0 0 1 16 5.5ZM14.5 19a4.5 4.5 0 1 0 0-9 4.5 4.5 0 0 0 0 9ZM13 16h3a.5.5 0 0 1 0 1h-3a.5.5 0 0 1 0-1Zm2.4-4.8a.5.5 0 0 1-.1.7L13.833 13l1.467 1.1a.5.5 0 0 1-.6.8l-2-1.5a.5.5 0 0 1 0-.8l2-1.5a.5.5 0 0 1 .7.1Z"/></svg>
